X: 19140
T: Irish Washerwoman, The
R: jig
M: 6/8
K: Gmajor
|:AGE DEG|BzB dcB|cAA EAA|cGc edc|
AGE DEG|BzB dcB|cec ~A3|1 AGF G2A:|2 AGF GBd||
|:gfg GBd|gfg bag|fdd Azd|fga agf|
efg d2c|Bde ~B3|cec AdF|1 AGF GBd:|2 AGF G3||

